Papirus/22x22/mimetypes/text-x-install.svg

<?xml version="1.0" encoding="UTF-8" standalone="no"?>
<svg xmlns="http://www.w3.org/2000/svg" height="22" width="22" version="1">
 <g transform="translate(-1,-1)">
  <path d="m5 2c-0.554 0-1 0.446-1 1v18c0 0.554 0.446 1 1 1h14c0.554 0 1-0.446 1-1v-13l-5.5-0.5-0.5-5.5z" fill="#ccc"/>
  <path opacity=".2" d="m5 2c-0.554 0-1 0.446-1 1v0.5c0-0.554 0.446-1 1-1h9l5.5 5.5h0.5l-6-6z" fill="#fff"/>
  <path d="m14 2v5c0 0.5523 0.44772 1 1 1h5l-6-6z" fill="#ebebeb"/>
  <path opacity=".5" d="m11.143 9.0002s-0.143 0.0221-0.143 0.3848v5.6152h-2l3 3.9998 3-4.0002h-2v-5.6152c0-0.3762-0.143-0.3845-0.143-0.3845z"/>
 </g>
</svg>

<svg xmlns="http://www.w3.org/2000/svg" width="22" height="22" version="1">
 <g transform="translate(-1,-1)">
  <path style="opacity:0.2" d="m 5,2.5 c -0.554,0 -1,0.446 -1,1 v 18 c 0,0.554 0.446,1 1,1 h 14 c 0.554,0 1,-0.446 1,-1 V 8.5 L 14.5,8 14,2.5 Z"/>
  <path style="fill:#cccccc" d="M 5,2 C 4.446,2 4,2.446 4,3 v 18 c 0,0.554 0.446,1 1,1 h 14 c 0.554,0 1,-0.446 1,-1 V 8 L 14.5,7.5 14,2 Z"/>
  <path style="opacity:0.2;fill:#ffffff" d="M 5,2 C 4.446,2 4,2.446 4,3 v 0.5 c 0,-0.554 0.446,-1 1,-1 h 9 L 19.5,8 H 20 L 14,2 Z"/>
  <path style="opacity:0.2" d="m 14,2.5 v 5 c 0,0.5523 0.44772,1 1,1 h 5 z"/>
  <path style="fill:#ebebeb" d="m 14,2 v 5 c 0,0.5523 0.44772,1 1,1 h 5 z"/>
  <path style="opacity:0.5" d="m 11.143,9.0002 c 0,0 -0.143,0.0221 -0.143,0.3848 v 5.6152 H 9 L 12,19 15,14.9998 H 13 V 9.3846 C 13,9.0084 12.857,9.0001 12.857,9.0001 Z"/>
 </g>
</svg>
